X: 1
T: L\"ahtek\"a\"atte Ameriikkaan
R: masurka
M: 3/4
L: 1/8
K: A
|: "A" A>c e2 e2 | "D"a>g f2 f2 | "E7"B>c d2 d2 | "A"f2 e2 z2 :|
|: "E7"f>e B2 d2 | "A"d>c A2 c2 | "E7"c>B G2 B2 | "A"B2 A2 z2 :|
